**kern	**kern
*staff1	*staff1
*head1[head1a]	*head1[head1a]
*head1[head1b]	*head1[head1b]
*head1[head1aa]	*head1[head1aa]
*solo1[solo1a]	*solo1[solo1a]
*solo1[solo1b]	*solo1[solo1b]
*solo1[solo1aa]	*solo1[solo1aa]
=1-	=1-
*clefG2	*clefG2
*k[]	*k[]
*C:	*C:
*M4/4	*M4/4
1r	.
=2	=2
1r	.
=3	=3
1r	.
=4	=4
1r	.
=5	=5
1r	.
=6	=6
1r	.
=7	=7
1r	.
=8	=8
1r	.
=9	=9
8r	1C:maj
*>head1a	*>head1a
{4.cc\	.
4g/	.
4a/	.
=10	=10
4.b-\	2F:min
[8a-/	.
8a-/L]	2B-:dom
8e-/	.
8f/	.
[8g/J	.
=11	=11
2g/]	2C:dom
4.g/	2B-:dom
[8e/	.
=12	=12
4.e/]	1A:dom
8e/	.
8f/L	.
8e/	.
8f/	.
8g/J	.
=13	=13
8e/L	1D:dom
8c/J	.
8r	.
[8c/	.
2c/]	.
=14	=14
4r	1G:dom
8r	.
8d/	.
8r	.
8e/L	.
8f/	.
[8g/J	.
=15	=15
4.g/]	2E:min
[8a/	.
8a/L]	2A:dom
8e/	.
8f/	.
[8g/J	.
=16	=16
2.g/]}	2D:min
4r	2G:dom
=17	=17
4r	1G:dom
8r	.
8c/	.
8e/L	.
8c/	.
8e/	.
[8c/J	.
=18:|!	=18:|!
1c]	1C:dom
=19	=19
2r	2C:maj
4r	2B:dom:9+
*>head1b	*>head1b
{24g/LL	.
24a/	.
24g/JJ	.
8g-/	.
=20	=20
4.e/	2E:min
8f#/	.
8g/	.
4e/	.
8a/	.
=21||	=21||
8r	.
8a/	2F#:h7
2.a/	2B:dom:9
=22	=22
8g/L	1E:min
8a/	.
8g/	.
8f#/J	.
8e/L	.
8B/	.
8c/	.
[8c#/J	.
=23	=23
2c#/]}	1A:dom
4r	.
8r	.
{8B-/	.
=24	=24
4.A/	1D:min
8a/	.
8r	.
8e/L	.
8f/	.
8g/J	.
=25	=25
8r	2E:h7
4.g/	.
8f/L	2A:dom
8e/	.
8d/	.
8c#/J	.
=26	=26
8e/L	1D:dom
8A/J	.
8r	.
[8e/	.
4.e/]	.
8A/	.
=27	=27
8d/L	2D:dom
8e/	.
8f/	.
8g/J}	.
2r	2D-:dom
=28	=28
8r	1C:maj
*>head2a	*>head2a
{4.cc\	.
4g/	.
4a/	.
=29||	=29||
4.b-\	2F:min
[8a-/	.
8a-/L]	2B-:dom
8e-/	.
8f/	.
[8g/J	.
=30	=30
2g/]	2C:dom
4.g/	2B-:dom
[8e/	.
=31	=31
4e/]	1A:dom
8e/L	.
8f/J	.
8r	.
8e-/L	.
8en/	.
8a/J	.
=32	=32
8r	1D:dom
[8a/	.
2.a/]	.
=33	=33
8r	1G:dom
8A/	.
12B/L	.
12c/	.
12d/J	.
4e/	.
8G/L	.
[8c/J	.
=34	=34
2.c/]}	1C:maj
4r	.
=35	=35
4r	2D:min
8r	.
*>solo1a	*>solo1a
{16e-/LL	.
16en/JJ	.
8f/L	2G:dom
8b-/J	.
24a-/LL	.
24b-/	.
24a-/JJ	.
8f#/	.
=36	=36
8g/L	1C:maj
8e/J	.
4r	.
8r	.
16dd\LL	.
16dd-\J	.
8cc\	.
8g\J	.
=37||	=37||
8b-\L	2F:min
16cc\L	.
16b-\J	.
8a\	.
[8a-\J	.
8a-/L]	2B-:dom
8f/	.
8e-/	.
8c/J	.
=38	=38
24g/LL	2C:dom
24a/	.
24g/JJ	.
8f/L	.
8e/	.
8A/J	.
8B-/L	2B-:dom
8d/	.
8f/	.
8g/J	.
=39	=39
8e/L	1A:dom
8d/J	.
12c#/L	.
12e/	.
12g/J	.
8b-\L	.
16cc\L	.
16b-\J	.
8a\	.
8g\J	.
=40	=40
8f#/L	1D:dom
8d/J	.
24c/LL	.
24d/	.
24c/JJ	.
8A/	.
2e/}	.
=41	=41
2r	2D:min
2r	2G:dom
=42	=42
{4g/	2E:min
8e/L	.
8f/J	.
8g/L	2A:dom
8cc/	.
8b/	.
8a/J	.
=43	=43
8g/L	2D:min
8f/	.
8d/	.
8A/J	.
4e/	2G:dom
8g/L	.
[8d/J	.
=44	=44
4d/]}	1C:maj
4r	.
4r	.
8r	.
{8a/	.
=45||	=45||
8b-/L	2F:min
8a/	.
8a-/	.
8f/J	.
8e-/L	2B-:dom
8c/	.
8g/	.
8f/J	.
=46	=46
8e/L	2C:dom
8B-/J	.
8r	.
8d/	.
8f/L	2B-:dom
8g/	.
8e/	.
8d/J	.
=47	=47
8c#/L	1A:dom
8e/	.
8B-/	.
8A-/J	.
8An/L	.
8f/	.
8e/	.
8cn/J	.
=48	=48
8d/L	1D:dom
8B/	.
8c/	.
[8d/J	.
8d/L]	.
8B/	.
8c/	.
8d/J	.
=49	=49
8B/L	2D:min
[8A/J	.
4A/]	.
4r	2G:dom
8.r	.
16G/	.
=50	=50
8c/L	1C:maj
[8G/J	.
4G/]}	.
2r	.
=51	=51
2r	2C:maj
2r	2B:dom:9#
=52	=52
4r	2E:min
*>solo1b	*>solo1b
{8B/L	.
16c#/L	.
16d#/JJ	.
8e/L	.
8f#/	.
8g/	.
8a/J	.
=53||	=53||
16a#/LK	2#F:h7
[8.b/J	.
4b\]	.
4r	2B:dom
8cc\L	.
16dd\L	.
16cc\JJ	.
=54	=54
8b/L	1E:min
8g/	.
8e/	.
8B/J	.
12f#/L	.
12g/	.
12g#/J	.
8a/L	.
8f#/J	.
=55	=55
8g/L	1A:dom
[8e/J	.
4e/]}	.
2r	.
=56	=56
8r	1D:min
{24A/LL	.
24B/	.
24c#/JJ	.
8d/L	.
8e/J	.
8f/L	.
8g/	.
8a/	.
[8b-/J	.
=57	=57
8b-\]	2E:h7
24cc\LL	.
24b-\	.
24a\JJ	.
8g/L	.
8f/J	.
8e/L	2A:dom
8d/	.
8c#/	.
[8bn/J	.
=58	=58
24b\LL]	1D:dom
24cc\	.
24b\JJ	.
8a/L	.
8g/	.
8g-/J	.
8f/L	.
8A/	.
8c/	.
8e/J	.
=59	=59
8d/L	2D:min
8A/	.
8c/	.
8A/J	.
8B/L	2G:dom
8a-/	.
8f/	.
8f#/J	.
=60	=60
4g/}	1C:maj
*>solo1aa	*>solo1aa
4r	.
8r	.
{8dd\L	.
8cc\	.
8g\J	.
=61||	=61||
8b-/L	2F:min
8a/J	.
8r	.
8a-/	.
8r	2B-:dom
8f/L	.
8e/	.
8c/J	.
=62	=62
4g/	2C:dom
8r	.
16B-/LL	.
16d/JJ	.
8f/L	2B-:dom
8g/	.
8e/	.
8d/J	.
=63	=63
8c#/L	1A:dom
8e/	.
8g/	.
[8b/J	.
4b\]	.
4a/	.
=64	=64
8b/L	1D:dom
[8e/J	.
4e/]}	.
2r	.
=65	=65
2r	2D:min
{4cc\	.
8cc\L	2G:dom
[8cc\J	.
=66	=66
4cc\]	1C:maj
4r	.
8b-\L	.
16cc\L	.
16b-\J	.
8g\	.
8a\J	.
=67	=67
8g/L	2D:min
8f/	.
8e-/	.
8c/J	.
4d/	2G:dom
8c/L	.
[8G/J	.
=68	=68
4G/]}	1C:maj
4r	.
2r	.
==	==
*-	*-
